web/src/components/softwareCloud/imgs/03-AdGuard.svg

<svg viewBox="0 0 25.3 25.3" version="1.1" xmlns="http://www.w3.org/2000/svg">
    <path fill="#68bc71" d="M12.6512986,0 C8.69689131,0 3.92688756,0.929914894 3.87976037e-06,2.9767234 C3.87976037e-06,7.3972766 -0.0542007083,18.4102128 12.6512986,25.935 C25.3570787,18.4102128 25.3031549,7.3972766 25.3031549,2.9767234 C21.3759904,0.929914894 16.6059867,0 12.6512986,0 L12.6512986,0 Z"/>
    <path fill="#67b279" d="M12.6383754,25.9273425 C-0.0541639467,18.4027433 3.87976037e-06,7.39577733 3.87976037e-06,2.9767234 C3.9226108,0.932144068 8.68650231,0.00202686119 12.6383754,3.30925217e-06 L12.6383754,25.9273451 Z"/>
    <path fill="#fff" d="M12.1898292,17.3046764 L19.8402793,6.99357039 C19.2796699,6.54422358 18.7879353,6.86136327 18.517241,7.10689078 L18.5073636,7.10767773 L12.1284291,13.7434783 L9.72501633,10.8511853 C8.57843655,9.52649092 7.01967536,10.536931 6.65554618,10.8039684 L12.1898292,17.3046764"/>
</svg>

<svg viewBox="0 0 25.3 25.3" xmlns="http://www.w3.org/2000/svg"><path fill="#68bc71" d="M12.651 0C8.697 0 3.927.93 0 2.977c0 4.42-.054 15.433 12.651 22.958C25.357 18.41 25.303 7.397 25.303 2.977 21.376.93 16.606 0 12.651 0Z"/><path fill="#67b279" d="M12.638 25.927C-.054 18.403 0 7.396 0 2.977 3.923.932 8.687.002 12.638 0v25.927Z"/><path fill="#fff" d="m12.19 17.305 7.65-10.311c-.56-.45-1.052-.133-1.323.113h-.01l-6.379 6.636-2.403-2.892c-1.147-1.325-2.705-.314-3.07-.047l5.535 6.5"/></svg>
